X:26
T:Ed Kellog's Q. S.
S:American Veteran Fifer #26
C:Donated by Theo. B. Jobi, Bugler Co.M.8th O.V.C.
M:2/4
L:1/8
Q:1/8=180
K:D 
%%MIDI program 72
%%MIDI transpose 8
%%MIDI ratio 3 1
|: FA A2 | Bd d2 | fdef | dB B/c/d |
FA A2 | Bd d2 | adef | d2-d2 :|
|: fa a2 | fa d2 | fdef | dB B/c/d |
FA A2 | Bd d2 | fdef |  d4 :|


